!!!COM: Schubert, Franz Peter
!!!CDT: 1797-1828
!!!OTL: Dithyrambe
!!!OPS: Opus 60
!!!ONM: No. 2
!!!SCT: DV 801
!!!YOR: Franz Schubert: Selected songs
!!!PPE: Max Friedlaender
!!!PSR: C.F. Peters 
!!!PSP: Frankfurt, London, New York
!!!PSD: n.d.
!!!PPG: pp.56-58
!!!ODT: 1824///
!!!ONB: Leading and trailing bars of rest have been deleted.
**kern
*M6/8
*MM[Geschwind, feurig]
*A:
*k[f#c#g#]
*>[introduction,strophe,strophe,strophe,final_bar]
*>introduction
=1
2.r
=2
2.r
=3
2.r
=4
2.r
=5
2.r
*>strophe
=6
8.a
16g#
8a
8e
8c#
8e
=7
8.e
16g#
8b
4b
8a
=8
8.cc#
16b
8cc#
(4dd
8d)
=9
8.d#
16c#
8d#
4e
8r
=10
8e
8e
8e
8.e#
16f#
8f#
=11
8.a
16g#
8f#
4f#
8en
=12
8e
8cc#
8cc#
8cc#
8ccn
8cc
=13
8.b
16cc#
8b
4b
8a
=14
8a
8a
8a
8.dd
16d
8e
=15
8f#
8gn
8e
4.a
=16
8b
8b
8b
8.dd
16d
8e
=17
8f#
8gn
8e
4d
8r
=18
4.r
4r
8f#
=19
(32f#
32g#
16f#)
8e
8e
8a#
8b
8e
=20
(32f#
32g#
16f#)
8e
8e
8a#
8b
8b
=21
8.cc#
16dd
8cc#
8cc#
8c#
8c#
=22
8.d
16e
8d
8d
8gn
8b
=23
8b
8e
8e
8e
8c#
8a
=24
8b
8e
8e
8e
8c#
8cc#
=25
8cc#
8a#
8f#
(16e
16d)
8c#
8B
=26
8.A
16B
8A
4.e
=27
4c#
8cc#
8cc#
8a#
8f#
=28
(16e
16d)
8c#
8B
8.A
16B
8A
=29
2.e
=30
4.A
4.r
=31
2.r
=32
2.r
=33
2.r
=34
2.r
*>final_bar
=35
2.r
*-
!!!ENC: David Huron
!!!EMD: To ease editing, Paul von Hippel added leading and trailing bars of rest (1998/10/22/).
!!!EMD: Paul von Hippel updated this file in the following ways (1998/9/2,21-22/):
!!!EMD:  (1) changed the representation of slurs from curly braces to parentheses 
!!!EMD:  (2) changed freeform comments into reference records and tandem interpretations
!!!EMD:  (3) changed final barline from quadruple (====) to double (==)
!!!EMD:  (4) added key signatures, key designations, and tempi
!!!EMD:  (5) added section labels and an expansion list
!!!EMD:		(The original encoding had written out the repeated sections.)
!!!EEV: Version 2.0
